public/build/img/sistema/whatsapp.svg

<svg width="21" height="24" viewBox="0 0 21 24" fill="none" xmlns="http://www.w3.org/2000/svg">
<path d="M17.8547 4.55156C15.8906 2.58281 13.275 1.5 10.4953 1.5C4.75781 1.5 0.0890625 6.16875 0.0890625 11.9062C0.0890625 13.7391 0.567188 15.5297 1.47656 17.1094L0 22.5L5.51719 21.0516C7.03594 21.8813 8.74688 22.3172 10.4906 22.3172H10.4953C16.2281 22.3172 21 17.6484 21 11.9109C21 9.13125 19.8187 6.52031 17.8547 4.55156ZM10.4953 20.5641C8.93906 20.5641 7.41562 20.1469 6.08906 19.3594L5.775 19.1719L2.50313 20.0297L3.375 16.8375L3.16875 16.5094C2.30156 15.1313 1.84688 13.5422 1.84688 11.9062C1.84688 7.13906 5.72812 3.25781 10.5 3.25781C12.8109 3.25781 14.9812 4.15781 16.6125 5.79375C18.2437 7.42969 19.2469 9.6 19.2422 11.9109C19.2422 16.6828 15.2625 20.5641 10.4953 20.5641ZM15.2391 14.0859C14.9813 13.9547 13.7016 13.3266 13.4625 13.2422C13.2234 13.1531 13.05 13.1109 12.8766 13.3734C12.7031 13.6359 12.2063 14.2172 12.0516 14.3953C11.9016 14.5688 11.7469 14.5922 11.4891 14.4609C9.96094 13.6969 8.95781 13.0969 7.95 11.3672C7.68281 10.9078 8.21719 10.9406 8.71406 9.94687C8.79844 9.77344 8.75625 9.62344 8.69062 9.49219C8.625 9.36094 8.10469 8.08125 7.88906 7.56094C7.67813 7.05469 7.4625 7.125 7.30313 7.11563C7.15313 7.10625 6.97969 7.10625 6.80625 7.10625C6.63281 7.10625 6.35156 7.17188 6.1125 7.42969C5.87344 7.69219 5.20312 8.32031 5.20312 9.6C5.20312 10.8797 6.13594 12.1172 6.2625 12.2906C6.39375 12.4641 8.09531 15.0891 10.7062 16.2188C12.3562 16.9312 13.0031 16.9922 13.8281 16.8703C14.3297 16.7953 15.3656 16.2422 15.5812 15.6328C15.7969 15.0234 15.7969 14.5031 15.7313 14.3953C15.6703 14.2781 15.4969 14.2125 15.2391 14.0859Z" fill="#0538A5"/>
</svg>

<svg width="21" height="24" fill="none" xmlns="http://www.w3.org/2000/svg"><path d="M17.855 4.552a10.328 10.328 0 0 0-7.36-3.052C4.758 1.5.09 6.169.09 11.906c0 1.833.478 3.624 1.388 5.203L0 22.5l5.517-1.448c1.519.83 3.23 1.265 4.974 1.265h.004C16.228 22.317 21 17.648 21 11.911c0-2.78-1.181-5.39-3.145-7.36Zm-7.36 16.012A8.634 8.634 0 0 1 6.09 19.36l-.314-.187-3.272.858.872-3.193-.206-.328a8.62 8.62 0 0 1-1.322-4.603c0-4.767 3.881-8.648 8.653-8.648 2.31 0 4.481.9 6.113 2.536 1.63 1.636 2.634 3.806 2.63 6.117 0 4.772-3.98 8.653-8.748 8.653Zm4.744-6.478c-.258-.131-1.537-.76-1.777-.844-.239-.089-.412-.131-.585.131-.174.263-.67.844-.825 1.022-.15.174-.305.197-.563.066-1.528-.764-2.531-1.364-3.539-3.094-.267-.46.267-.426.764-1.42.084-.174.042-.324-.023-.455-.066-.131-.586-1.41-.802-1.931-.21-.506-.426-.436-.586-.445-.15-.01-.323-.01-.497-.01a.963.963 0 0 0-.694.324c-.239.262-.909.89-.909 2.17 0 1.28.933 2.517 1.06 2.69.13.174 1.832 2.8 4.443 3.929 1.65.712 2.297.773 3.122.651.502-.075 1.538-.628 1.753-1.237.216-.61.216-1.13.15-1.238-.06-.117-.234-.182-.492-.31Z" fill="#0538A5"/></svg>
